X:71
T:Da que Deus mamo (Cantiga 77)
C:Las Cantigas de Santa Maria
C:Alphonso X, El Sabio (1221-1284)
R:Cantigas
Z:Transcrit et/ou corrigé par B@D - 2005-03-26
Z:Pour toute observation mailto:-@-
M:2
L:1/8
K:Em
P:A
f>e f>g | a2d2 | f>g (3fed | c3z |{d}f>e f>g | a2d2 | f>e (3dec | d2-dz :|
f>g a>g | (a/g/f/e/) d>c | f>e d>c | f2 fz | f>g a>g | (a/g/f/e/) d>c | f>e d>c | d2 dz |]




%%header "$P0	 $IR 	$P1"
%%footer $D - Éditions Galouvielle - 2009 - À usage librement privé dans le cadre familial

